icon/cg/loupe.svg

<svg viewBox="0 0 24 24" fill="none" xmlns="http://www.w3.org/2000/svg" height="1em" width="1em">
  <path d="M11 11V8H13V11H16V13H13V16H11V13H8V11H11Z" fill="currentColor"/>
  <path fill-rule="evenodd" clip-rule="evenodd" d="M3 12C3 16.9706 7.02944 21 12 21H18C19.6569 21 21 19.6569 21 18V12C21 7.02944 16.9706 3 12 3C7.02944 3 3 7.02944 3 12ZM12 5C15.866 5 19 8.13401 19 12C19 15.866 15.866 19 12 19C8.13401 19 5 15.866 5 12C5 8.13401 8.13401 5 12 5Z" fill="currentColor"/>
</svg>

<svg width="24" height="24" fill="none" xmlns="http://www.w3.org/2000/svg"><path d="M11 11V8h2v3h3v2h-3v3h-2v-3H8v-2h3Z" fill="currentColor"/><path fill-rule="evenodd" clip-rule="evenodd" d="M3 12a9 9 0 0 0 9 9h6a3 3 0 0 0 3-3v-6a9 9 0 1 0-18 0Zm9-7a7 7 0 1 1 0 14 7 7 0 0 1 0-14Z" fill="currentColor"/></svg>
